Newaita-dark/.DP/16/telegram-panel.svg

<svg xmlns="http://www.w3.org/2000/svg" xmlns:xlink="http://www.w3.org/1999/xlink" width="16px" height="16px" viewBox="0 0 16 16" version="1.1">
<g id="surface1">
<path style=" stroke:none;fill-rule:nonzero;fill:rgb(93.333334%,93.333334%,93.333334%);fill-opacity:1;" d="M 13.449219 2.515625 C 13.257812 2.339844 12.984375 2.289062 12.742188 2.382812 L 2.453125 6.453125 C 1.859375 6.6875 1.894531 7.539062 2.507812 7.722656 L 6.945312 9.054688 L 8.277344 13.496094 C 8.460938 14.105469 9.3125 14.144531 9.550781 13.546875 L 13.617188 3.257812 C 13.71875 3 13.652344 2.703125 13.449219 2.515625 Z M 13.449219 2.515625 "/>
</g>
</svg>

<svg xmlns="http://www.w3.org/2000/svg" width="16pt" height="16pt" viewBox="0 0 16 16"><path d="M13.45 2.516a.68.68 0 0 0-.708-.133L2.453 6.453c-.594.234-.558 1.086.055 1.27l4.437 1.332 1.332 4.441c.184.61 1.036.649 1.274.05l4.066-10.288a.676.676 0 0 0-.168-.742zm0 0" fill="#bdbdbd"/></svg>
